X:1
T:Nicosia, 77.77 D
T:Nicosia, 77.77 D
T:William Fiske Sherwin, 1869
T:Public Domain Courtesy of the Cyber Hymnal™
C:William Fiske Sherwin, 1869
Z:Public Domain
Z:Courtesy of the Cyber Hymnal™
%%score ( 1 2 ) 3
L:1/8
Q:1/4=85
M:2/4
K:C
V:1 treble 
V:2 treble 
V:3 bass 
V:1
 [Ec][GB] [FA][EG] | [FA][EG] [CE]2 | [B,G][DF] [B,E][B,D] | [CE][DF] [EG]2 | [Ec][GB] [FA][EG] | %5
 [FA][EG] [CE]2 | [EG][FA] [EG][DF] | [CE][B,D] C2 | [B,D][CE] [DF][B,D] | [CE][DF] [EG]2 | %10
 [B,D][CE] [DF][B,D] | [CE][DF] [EG]2 | [FA][FA] [FA][Ac] | [GB][FA] [EG]2 | [Ec][EG] [CE]C | %15
 [CE][B,D] C2 |] %16
V:2
 x4 | x4 | x4 | x4 | x4 | x4 | x4 | x2 C2 | x4 | x4 | x4 | x4 | x4 | x4 | x3 C | x2 C2 |] %16
V:3
 C,C, C,C, | C,C, C,2 | G,,G,, G,,G,, | C,C, C,2 | C,C, C,C, | C,C, C,2 | C,C, C,F, | G,G,, C,2 | %8
 G,,G,, G,,G,, | C,C, C,2 | G,,G,, G,,G,, | C,C, C,2 | F,F, F,F, | F,F, C,2 | C,C, C,A,, | %15
 G,,G,, C,2 |] %16

